X:69
T:Sing, O Sing, This Blessed Morn
%%stretchlast false
M:4/4
L:1/4
K:C clef=C1
"^I"[C,G,Ec] "^vii°¹"[D,F,DB] "^I¹"[E,Cc] "^I"[C,G,CE] | "^IV¹"[A,,F,CF] "^IV"[F,,F,CA] "^I"[C,E,CG]2 | "^IV"[F,CA] [F,,F,CA] "^I"[C,E,CG] "^vi"[A,,E,CA] | "^V¹"[B,,G,DG] "^V7"[G,,G,B,F] "^I"[C,G,CE]2 | "^vi"[A,,A,Ec] [A,,A,Ec] "^♭vi°¹"[B,,^G,DB] "^vi¹"[C,A,EA] | "^III"[E,B,E^G] "^V/vi"[E,^G,EB] "^vi"[A,,A,CA]2 | [A,,A,CA] "^vi¹"[C,A,EA]/ "^vi7¹"[C,A,EG]/ "^II"[D,A,D^F] "^iii"[E,G,B,G] | "^V²"[D,G,DB] "^V/V"[D,^F,DA] "^V"[G,,G,B,G]2 | "^IV"[F,CA] [F,A,CA] "^I"[C,G,Ec] [C,G,CE] | "^IV¹"[A,,F,CF] "^IV"[F,,F,CA] "^I"[C,E,CG]2 | [C,G,CE] "^vi"[A,,CE] "^V"[G,,B,DG] "^I¹"[E,CG] | "^IV"[F,CA] [F,CFA] "^I"[C,CEc]2 |]
